X: 629
T: Tail Toddle Reel
C: William Nesbit (attr. 1784)
N: This tune was attributed to Mr. Nesbit in Niel Gow's First Collection (1784).
N: It is similar to the tune Fiddle-Faddle, published by John Walsh in Caledonian Country Dances (1731).
B: Mel Bay 224 (in A)
B: Carlin #224 (in A, as strathspey, attr. to "William Nisbet")
B: Kerr's 4th p.10 (in D)
B: BSFC XI-7 (in D)
D: Fiddlers 3+2 A6
Z: 1999 John Chambers <jc:trillian.mit.edu>
M: 4/4
L: 1/8
K: D
|: "D"~d2 fd "G"g2 fe | "D"~d2 fd "A7"e2 cA | "D"~d2 fd "G"g2 fe | "D"(3fga gf "A7"e2 cA :|
|: "G"g2 dB ~B2 dB | g2 dB "A7"e2 cA | "G"g2 dB ~B2 dB | "A7"~A2 af e2 cA :|

%%sep 1 1 500

